X: 3
T: Denis Murphy's
R: polka
M: 2/4
L: 1/8
K: Cmaj
|:c2 cA | GE c2| EG cA |GE DC|
c2 cA | GE c2 | EG DE |DC C2:|
|:EG GE| FA AF |EG G>E| F/G/F/E/ DC|
EG GE| FA A>F |EG DE| DC C2:|


Tune 357	Setting 13159

